<?xml version="1.0" encoding="UTF-8"?>
<map version="1.10" tiledversion="1.11.2" orientation="orthogonal" renderorder="left-up" width="40" height="23" tilewidth="16" tileheight="16" infinite="0" nextlayerid="3" nextobjectid="48">
 <tileset firstgid="1" source="Bridge.tsx"/>
 <tileset firstgid="64" source="Bushes.tsx"/>
 <tileset firstgid="183" source="Construction.tsx"/>
 <tileset firstgid="302" source="ConstructionOverlay.tsx"/>
 <tileset firstgid="446" source="Ledges.tsx"/>
 <tileset firstgid="509" source="Main.tsx"/>
 <tileset firstgid="707" source="Pavement.tsx"/>
 <tileset firstgid="826" source="Stairways.tsx"/>
 <tileset firstgid="1148" source="Walls.tsx"/>
 <layer id="1" name="BaseLayer" width="40" height="23">
  <data encoding="csv">
0,0,0,0,0,0,0,0,0,0,0,0,0,0,529,530,531,532,533,534,535,536,537,538,539,540,541,542,0,0,0,0,0,0,827,828,829,830,831,832,
0,0,0,0,0,0,0,0,0,0,0,0,0,0,547,548,549,550,551,552,553,554,555,556,557,558,559,560,0,0,0,0,0,0,850,851,852,853,854,855,
0,0,0,0,0,0,0,0,0,0,0,0,0,0,565,566,567,568,569,570,571,572,573,574,575,576,577,578,0,0,0,0,0,0,873,874,875,876,877,878,
0,0,0,0,0,0,0,0,0,0,0,0,0,0,583,584,585,586,587,588,589,590,591,592,593,594,595,596,0,0,0,0,0,0,896,897,898,899,900,901,
0,0,0,0,0,0,0,0,0,0,0,0,0,0,601,602,603,604,605,606,607,608,609,610,611,612,613,614,0,0,0,0,0,0,919,920,921,922,923,924,
0,0,0,0,0,0,0,0,0,0,0,0,0,0,0,0,725,726,727,728,729,730,731,732,733,734,735,736,737,738,739,0,0,0,942,943,944,945,946,947,
0,0,0,0,0,0,0,0,0,0,0,0,0,0,0,0,742,743,744,745,746,747,748,749,750,751,752,753,754,755,756,0,0,0,965,966,967,968,969,970,
0,0,0,0,0,0,0,0,0,0,0,0,0,0,335,336,759,760,761,762,763,764,765,766,767,768,769,770,771,772,773,0,0,0,988,989,990,991,992,993,
339,340,341,342,343,344,345,346,347,348,349,350,351,352,353,354,776,777,778,779,780,781,782,783,784,785,786,787,788,789,790,1034,1035,1036,1037,1038,1039,1040,1041,1042,
357,358,359,360,361,362,363,364,365,366,367,368,369,370,371,372,793,794,795,796,797,798,799,800,801,802,803,804,805,806,807,1057,1058,1059,1060,1061,1062,1063,1064,1065,
375,376,377,378,379,380,381,382,383,384,385,386,387,388,389,390,0,0,0,0,0,0,0,0,0,0,0,0,0,0,0,1080,1081,1082,1083,1084,1085,1086,1087,1088,
393,394,395,396,397,398,399,400,401,402,403,404,405,406,407,408,0,0,0,0,927,928,929,930,931,932,933,934,935,936,937,938,1104,1105,1106,1107,1108,1109,1110,1111,
411,412,413,414,415,416,417,418,419,420,421,422,423,424,425,426,0,0,0,0,950,951,952,953,954,955,956,957,958,959,960,961,0,0,0,0,0,0,0,0,
0,0,0,0,0,201,202,203,204,205,206,207,208,209,210,211,212,213,214,215,973,974,975,976,977,978,979,980,981,982,983,984,1456,1457,1458,1459,0,0,0,0,
0,1247,1248,1249,0,218,219,220,221,222,223,224,225,226,227,228,229,230,231,232,996,997,998,999,1000,1001,1002,1003,1004,1005,1006,1007,1478,1479,1480,1481,0,0,0,0,
0,0,0,0,0,235,236,237,238,239,240,241,242,243,244,245,246,247,248,249,1019,1020,1021,1022,1023,1024,1025,1026,1027,1028,1029,1030,1500,1501,1502,1503,0,0,0,0,
9,10,11,12,13,252,253,254,255,256,257,258,259,260,261,262,263,264,265,266,834,835,836,837,838,839,840,841,842,843,844,845,1522,1523,1524,1525,0,0,0,0,
16,17,18,19,20,269,270,271,272,273,274,275,276,277,278,279,280,281,282,283,857,858,859,860,861,862,863,864,865,866,867,868,869,870,0,0,0,0,0,0,
23,24,25,26,27,82,83,84,85,86,87,88,89,90,91,92,93,94,95,96,880,881,882,883,884,885,886,887,888,889,890,891,892,893,0,1462,1463,1464,1465,0,
30,31,32,33,34,99,100,101,102,103,104,105,106,107,108,109,110,111,112,113,903,904,905,906,907,908,909,910,911,912,913,914,915,916,0,1484,1485,1486,1487,0,
37,38,39,40,41,116,117,118,119,120,121,122,123,124,125,126,127,128,129,130,0,0,0,0,0,0,0,0,0,0,0,0,0,0,0,1506,1507,1508,1509,0,
44,45,46,47,48,133,134,135,136,137,138,139,140,141,142,143,144,145,146,147,0,0,0,0,0,0,0,0,0,0,0,0,0,0,0,1528,1529,1530,1531,0,
51,52,53,54,55,150,151,152,153,154,155,156,157,158,159,160,161,162,163,164,0,0,0,0,0,0,0,0,0,0,0,0,0,0,0,0,0,0,0,0
</data>
 </layer>
 <objectgroup id="2" name="Colliders">
  <object id="24" x="0" y="0">
   <polygon points="0,0 0,368 16,368 16,0"/>
  </object>
  <object id="25" x="624" y="0">
   <polygon points="0,0 0,368 16,368 16,0"/>
  </object>
  <object id="26" x="16" y="16">
   <polygon points="0,0 608,0 608,-16 0,-16"/>
  </object>
  <object id="27" x="16" y="368">
   <polygon points="0,0 608,0 608,-16 0,-16 0,0"/>
  </object>
  <object id="29" x="496" y="352">
   <polygon points="0,0 128,-112 128,0 96,-48"/>
  </object>
  <object id="30" x="384" y="272">
   <polygon points="0,0 16,0 16,-192 0,-192"/>
  </object>
  <object id="31" x="544" y="224">
   <polygon points="0,0 0,-144 16,-144 16,0 0,0"/>
  </object>
  <object id="35" x="240" y="96">
   <polygon points="0,0 0,16 16,16 16,0"/>
  </object>
  <object id="36" x="240" y="112">
   <polygon points="0,0 0,16 16,16 16,0"/>
  </object>
  <object id="37" x="240" y="128">
   <polygon points="0,0 0,16 16,16 16,0"/>
  </object>
  <object id="38" x="240" y="144">
   <polygon points="0,0 0,16 16,16 16,0"/>
  </object>
  <object id="39" x="240" y="160">
   <polygon points="0,0 0,16 16,16 16,0"/>
  </object>
  <object id="40" x="240" y="176">
   <polygon points="0,0 0,16 16,16 16,0"/>
  </object>
  <object id="41" x="240" y="192">
   <polygon points="0,0 0,16 16,16 16,0"/>
  </object>
  <object id="42" x="240" y="208">
   <polygon points="0,0 0,16 16,16 16,0"/>
  </object>
  <object id="43" x="240" y="224">
   <polygon points="0,0 0,16 16,16 16,0"/>
  </object>
  <object id="44" x="240" y="240">
   <polygon points="0,0 0,16 16,16 16,0"/>
  </object>
  <object id="45" x="240" y="256">
   <polygon points="0,0 0,16 16,16 16,0"/>
  </object>
  <object id="46" x="240" y="272">
   <polygon points="0,0 0,16 16,16 16,0"/>
  </object>
  <object id="47" x="240" y="288">
   <polygon points="0,0 0,16 16,16 16,0"/>
  </object>
 </objectgroup>
</map>
